svg/picture.svg

<svg xmlns="http://www.w3.org/2000/svg" viewBox="0 0 64 48" enable-background="new 0 0 64 48"><style type="text/css">.st0{fill:#343434;}</style><title>picture</title><desc>Created with Sketch.</desc><path class="st0" d="M59 0h-54c-2.8 0-5 2.2-5 5v38c0 2.8 2.2 5 5 5h54c2.8 0 5-2.2 5-5v-38c0-2.8-2.2-5-5-5zm-55 5c0-.6.4-1 1-1h54c.6 0 1 .4 1 1v26.5l-17.5-11.6-7.9 12-5.4-6.3-24.6 18.3c-.4-.2-.6-.5-.6-.9v-38zm55 39h-49.6l19.2-14.3 8.1 9.4 2.3-2-2.4-2.8 6.7-10.2 16.7 11v7.9c0 .6-.4 1-1 1zM16 24c4.4 0 8-3.6 8-8s-3.6-8-8-8-8 3.6-8 8 3.6 8 8 8zm0-13c2.8 0 5 2.2 5 5s-2.2 5-5 5-5-2.2-5-5 2.2-5 5-5z"/></svg>

<?xml version="1.0" encoding="utf-8"?>
<!-- Generator: Adobe Illustrator 21.0.0, SVG Export Plug-In . SVG Version: 6.00 Build 0)  -->
<svg version="1.1" id="Layer_1" xmlns="http://www.w3.org/2000/svg" xmlns:xlink="http://www.w3.org/1999/xlink" x="0px" y="0px"
	 viewBox="0 0 64 48" style="enable-background:new 0 0 64 48;" xml:space="preserve">
<style type="text/css">
	.st0{fill:#343434;}
</style>
<title>picture</title>
<desc>Created with Sketch.</desc>
<g>
	<path class="st0" d="M59,0H5C2.2,0,0,2.2,0,5v38c0,2.8,2.2,5,5,5h54c2.8,0,5-2.2,5-5V5C64,2.2,61.8,0,59,0z M4,5c0-0.6,0.4-1,1-1
		h54c0.6,0,1,0.4,1,1v26.5L42.5,19.9l-7.9,12l-5.4-6.3L4.6,43.9C4.2,43.7,4,43.4,4,43V5z M59,44H9.4l19.2-14.3l8.1,9.4l2.3-2
		l-2.4-2.8l6.7-10.2L60,35.1V43C60,43.6,59.6,44,59,44z"/>
	<path class="st0" d="M16,24c4.4,0,8-3.6,8-8s-3.6-8-8-8s-8,3.6-8,8S11.6,24,16,24z M16,11c2.8,0,5,2.2,5,5s-2.2,5-5,5s-5-2.2-5-5
		S13.2,11,16,11z"/>
</g>
</svg>
